X: 9
T: Dublin, The
Z: UPipes & harp
S: https://thesession.org/tunes/384#setting49119
R: reel
M: 4/4
L: 1/8
K: Dmaj
dF~F2 dfec|dF~F2 {B} AFEA|dF~F2 dfed|cABF AFEA|
dF~F2 dfec|dF~F2 AFEA|d2 {e}dc dfed|{d}cABF AFEA||
eA~A2 eAfA|eA~A2 BAFA|eA~A2 egfe|dBcA BAFA|
eA~A2 eAfd|eA~A2 BAFA|d2 {e} dc dfed|cABF AFEA||
d2 {e}dc dAFA|dedB AFEF|Addc dfed|{d}cABF AFEA|
d2 dc dAFA|dedB ADFA|dcdf ~e3 g|fdBc d4||

